app/img/store-apple.svg

<svg width="203" height="60" viewBox="0 0 203 60" fill="none" xmlns="http://www.w3.org/2000/svg">
<path d="M201.103 52.9161C201.103 56.0913 198.531 58.6624 195.35 58.6624H7.09531C3.9161 58.6624 1.33533 56.0905 1.33533 52.9161V7.08976C1.33533 3.91623 3.9161 1.33545 7.09531 1.33545H195.349C198.531 1.33545 201.101 3.91623 201.101 7.08976L201.103 52.9161Z" fill="white"/>
<path d="M195.35 60H7.09531C3.18406 60 0 56.8232 0 52.916V7.09126C0 3.18082 3.18406 0 7.09531 0H195.349C199.256 0 202.444 3.18082 202.444 7.09126V52.9168C202.447 56.8232 199.258 60 195.35 60Z" fill="#FF715B"/>
<path d="M201.103 52.9161C201.103 56.0913 198.531 58.6624 195.35 58.6624H7.09531C3.9161 58.6624 1.33533 56.0905 1.33533 52.9161V7.08976C1.33533 3.91623 3.9161 1.33545 7.09531 1.33545H195.349C198.531 1.33545 201.101 3.91623 201.101 7.08976L201.103 52.9161Z" fill="#FF715B"/>
<path d="M45.2045 29.6839C45.1608 24.8479 49.1643 22.4955 49.3473 22.3862C47.08 19.0807 43.5663 18.6288 42.3314 18.5932C39.3797 18.2822 36.5172 20.3593 35.0142 20.3593C33.4805 20.3593 31.1653 18.6231 28.6704 18.6741C25.4596 18.7235 22.4561 20.5828 20.8082 23.4697C17.4087 29.356 19.9442 38.0053 23.2011 42.7635C24.8304 45.0949 26.7342 47.6951 29.2267 47.6036C31.6649 47.5048 32.5759 46.0504 35.5179 46.0504C38.4331 46.0504 39.2882 47.6036 41.8301 47.5445C44.4474 47.504 46.0944 45.2042 47.667 42.8526C49.5498 40.1836 50.3061 37.5518 50.3361 37.4165C50.2754 37.3963 45.2555 35.4787 45.2045 29.6839ZM40.4033 15.4625C41.7143 13.8227 42.6116 11.5918 42.363 9.32764C40.4648 9.41185 38.0914 10.6403 36.7245 12.2445C35.5155 13.6575 34.4352 15.9743 34.7138 18.1535C36.8459 18.3122 39.0348 17.0773 40.4033 15.4625Z" fill="white"/>
<path d="M80.5191 47.2687H77.1115L75.2449 41.4035H68.757L66.9787 47.2687H63.661L70.0899 27.3011H74.0602L80.5191 47.2687ZM74.683 38.9433L72.9954 33.7292C72.8172 33.1963 72.4803 31.942 71.9888 29.9677H71.9289C71.7305 30.8172 71.4139 32.0715 70.9806 33.7292L69.3214 38.9433H74.683ZM97.0208 39.8932C97.0208 42.342 96.356 44.2774 95.0255 45.6986C93.8343 46.9634 92.3532 47.5951 90.5871 47.5951C88.68 47.5951 87.3091 46.9148 86.4758 45.5528V53.1072H83.2772V37.6032C83.2772 36.0654 83.2367 34.4879 83.1589 32.8708H85.9721L86.1503 35.1528H86.2102C87.2767 33.4336 88.8962 32.5736 91.0689 32.5736C92.767 32.5736 94.1849 33.2441 95.3194 34.5875C96.4523 35.9334 97.0208 37.7011 97.0208 39.8932ZM93.7622 40.0098C93.7622 38.6081 93.4472 37.4533 92.814 36.5423C92.1224 35.5957 91.1936 35.122 90.0291 35.122C89.2396 35.122 88.5229 35.386 87.8824 35.9067C87.2402 36.4322 86.82 37.1173 86.624 37.9667C86.5252 38.3627 86.4758 38.6858 86.4758 38.9409V41.3427C86.4758 42.3882 86.7973 43.2724 87.4395 43.9956C88.0816 44.7155 88.9157 45.0774 89.9425 45.0774C91.1474 45.0774 92.0852 44.611 92.7557 43.6854C93.4262 42.7558 93.7622 41.5314 93.7622 40.0098ZM113.581 39.8932C113.581 42.342 112.916 44.2774 111.586 45.6986C110.393 46.9634 108.913 47.5951 107.146 47.5951C105.238 47.5951 103.868 46.9148 103.034 45.5528V53.1072H99.8356V37.6032C99.8356 36.0654 99.7951 34.4879 99.7174 32.8708H102.531L102.709 35.1528H102.769C103.834 33.4336 105.453 32.5736 107.627 32.5736C109.324 32.5736 110.742 33.2441 111.879 34.5875C113.011 35.9334 113.581 37.7011 113.581 39.8932ZM110.321 40.0098C110.321 38.6081 110.004 37.4533 109.371 36.5423C108.679 35.5957 107.754 35.122 106.589 35.122C105.8 35.122 105.083 35.386 104.439 35.9067C103.797 36.4322 103.378 37.1173 103.182 37.9667C103.084 38.3627 103.032 38.6858 103.032 38.9409V41.3427C103.032 42.3882 103.354 43.2724 103.994 43.9956C104.636 44.7147 105.47 45.0774 106.499 45.0774C107.706 45.0774 108.644 44.611 109.312 43.6854C109.985 42.7558 110.321 41.5314 110.321 40.0098ZM132.096 41.6683C132.096 43.368 131.501 44.7503 130.321 45.8168C129.021 46.9812 127.207 47.5651 124.881 47.5651C122.733 47.5651 121.011 47.1513 119.711 46.3213L120.45 43.6547C121.853 44.4855 123.394 44.9001 125.072 44.9001C126.278 44.9001 127.216 44.6272 127.885 44.0855C128.555 43.5421 128.895 42.8157 128.895 41.9096C128.895 41.0982 128.614 40.418 128.064 39.8649C127.51 39.3126 126.595 38.7984 125.309 38.3255C121.813 37.0217 120.063 35.1147 120.063 32.606C120.063 30.9678 120.681 29.626 121.915 28.5773C123.148 27.5303 124.784 27.0063 126.818 27.0063C128.635 27.0063 130.149 27.323 131.351 27.9546L130.548 30.5621C129.417 29.9499 128.14 29.6438 126.711 29.6438C125.583 29.6438 124.698 29.9216 124.065 30.4738C123.532 30.9678 123.263 31.5695 123.263 32.2837C123.263 33.0716 123.57 33.7259 124.183 34.2385C124.714 34.7106 125.683 35.2256 127.084 35.7779C128.803 36.4711 130.066 37.2784 130.875 38.2056C131.691 39.132 132.096 40.2892 132.096 41.6683ZM142.699 35.2718H139.173V42.2618C139.173 44.0401 139.794 44.9268 141.04 44.9268C141.611 44.9268 142.085 44.879 142.461 44.7786L142.549 47.208C141.919 47.4436 141.089 47.5619 140.062 47.5619C138.798 47.5619 137.811 47.1764 137.099 46.4047C136.389 45.6338 136.032 44.3414 136.032 42.5234V35.2661H133.931V32.8651H136.032V30.2293L139.174 29.281V32.8651H142.7V35.2718H142.699ZM158.576 39.9515C158.576 42.1647 157.943 43.9818 156.68 45.4022C155.358 46.8654 153.599 47.5942 151.407 47.5942C149.291 47.5942 147.61 46.8938 146.355 45.4937C145.101 44.0903 144.474 42.3234 144.474 40.1912C144.474 37.9603 145.122 36.1326 146.414 34.7114C147.709 33.2886 149.453 32.5776 151.645 32.5776C153.757 32.5776 155.455 33.2797 156.738 34.6815C157.966 36.0411 158.576 37.7967 158.576 39.9515ZM155.26 40.0252C155.26 38.7061 154.975 37.5748 154.404 36.6282C153.733 35.4848 152.773 34.9131 151.529 34.9131C150.248 34.9131 149.265 35.4848 148.596 36.6282C148.022 37.5748 147.737 38.7255 147.737 40.0851C147.737 41.4059 148.022 42.5396 148.596 43.4838C149.287 44.6272 150.253 45.1989 151.502 45.1989C152.725 45.1989 153.684 44.6151 154.377 43.4555C154.965 42.4853 155.26 41.3468 155.26 40.0252ZM168.979 35.684C168.662 35.6257 168.323 35.5957 167.971 35.5957C166.845 35.5957 165.975 36.0192 165.363 36.8711C164.832 37.621 164.565 38.5692 164.565 39.7143V47.2687H161.366V37.4056C161.366 35.7479 161.335 34.2353 161.273 32.8732H164.059L164.177 35.6281H164.265C164.604 34.6815 165.136 33.9178 165.864 33.3461C166.577 32.8319 167.346 32.5752 168.176 32.5752C168.472 32.5752 168.739 32.5963 168.976 32.6335L168.979 35.684ZM183.285 39.3887C183.285 39.9621 183.248 40.4447 183.168 40.8399H173.571C173.607 42.2626 174.072 43.3518 174.963 44.1017C175.772 44.7713 176.818 45.1066 178.102 45.1066C179.523 45.1066 180.819 44.8815 181.985 44.4272L182.486 46.646C181.124 47.2404 179.515 47.5359 177.659 47.5359C175.426 47.5359 173.674 46.8784 172.399 45.5674C171.126 44.2547 170.488 42.4902 170.488 40.2803C170.488 38.1109 171.081 36.3026 172.267 34.8604C173.51 33.321 175.189 32.5509 177.301 32.5509C179.376 32.5509 180.947 33.321 182.014 34.8604C182.861 36.0808 183.285 37.5926 183.285 39.3887ZM180.235 38.5587C180.257 37.6088 180.047 36.7909 179.614 36.0994C179.06 35.2078 178.208 34.7641 177.066 34.7641C176.021 34.7641 175.168 35.1973 174.52 36.0678C173.987 36.7594 173.671 37.591 173.574 38.5555L180.235 38.5587Z" fill="white"/>
<path d="M73.1403 20.1548H71.4641L70.5474 17.2728H67.3593L66.4847 20.1548H64.8538L68.0136 10.3403H69.9644L73.1403 20.1548ZM70.2713 16.0638L69.4412 13.5008C69.3546 13.2385 69.1934 12.6279 68.9465 11.6521H68.9165C68.8145 12.074 68.6687 12.6862 68.4501 13.5008L67.6354 16.0638H70.2713ZM81.0414 13.0789L78.3618 20.1548H76.8329L74.24 13.0789H75.9292L77.1382 16.8209C77.3423 17.4469 77.5164 18.0437 77.6468 18.6106H77.6905C77.8079 18.102 77.9812 17.5044 78.199 16.8209L79.3935 13.0789H81.0414ZM86.7463 20.1548L86.6289 19.3402H86.5851C86.1049 19.9961 85.4061 20.3151 84.5178 20.3151C83.2513 20.3151 82.3484 19.4268 82.3484 18.2324C82.3484 16.4857 83.8626 15.5828 86.4831 15.5828V15.4524C86.4831 14.5203 85.9883 14.0539 85.0125 14.0539C84.3129 14.0539 83.7015 14.2296 83.1638 14.5787L82.8439 13.5446C83.4999 13.1364 84.3145 12.9324 85.2757 12.9324C87.1244 12.9324 88.0573 13.9073 88.0573 15.8597V18.4656C88.0573 19.1798 88.0873 19.7337 88.1594 20.1548H86.7463ZM86.5268 16.6306C84.7793 16.6306 83.9056 17.0542 83.9056 18.0575C83.9056 18.8 84.3574 19.1636 84.9826 19.1636C85.7834 19.1636 86.5268 18.5531 86.5268 17.723V16.6306ZM91.5604 11.9137C91.0365 11.9137 90.6284 11.5055 90.6284 10.967C90.6284 10.4285 91.0503 10.035 91.5904 10.035C92.1289 10.035 92.5654 10.4277 92.5508 10.967C92.5516 11.5355 92.1443 11.9137 91.5604 11.9137ZM92.3767 20.1548H90.8041V13.0789H92.3767V20.1548ZM96.743 20.1548H95.1704V9.83252H96.743V20.1548ZM103.426 20.1548L103.309 19.3402H103.265C102.785 19.9961 102.086 20.3151 101.198 20.3151C99.9311 20.3151 99.0282 19.4268 99.0282 18.2324C99.0282 16.4857 100.542 15.5828 103.163 15.5828V15.4524C103.163 14.5203 102.668 14.0539 101.692 14.0539C100.994 14.0539 100.381 14.2296 99.8437 14.5787L99.523 13.5438C100.179 13.1356 100.994 12.9316 101.955 12.9316C103.804 12.9316 104.736 13.9065 104.736 15.8589V18.4648C104.736 19.179 104.768 19.7329 104.837 20.154L103.426 20.1548ZM103.207 16.6306C101.458 16.6306 100.585 17.0542 100.585 18.0575C100.585 18.8 101.037 19.1636 101.662 19.1636C102.463 19.1636 103.207 18.5531 103.207 17.723V16.6306ZM111.109 20.316C110.104 20.316 109.363 19.8924 108.883 19.0632H108.852L108.762 20.1556H107.422C107.465 19.5888 107.48 18.9466 107.48 18.2486V9.83252H109.054V14.1146H109.084C109.551 13.3283 110.305 12.9356 111.341 12.9356C113.046 12.9356 114.24 14.3924 114.24 16.5173C114.239 18.7134 112.913 20.316 111.109 20.316ZM110.789 14.1697C109.884 14.1697 109.056 14.956 109.056 16.0484V17.2866C109.056 18.2615 109.8 19.0632 110.762 19.0632C111.939 19.0632 112.641 18.1028 112.641 16.574C112.638 15.1471 111.909 14.1697 110.789 14.1697ZM118.136 20.1548H116.565V9.83252H118.136V20.1548ZM126.696 16.995H121.976C122.007 18.3352 122.893 19.0908 124.204 19.0908C124.902 19.0908 125.544 18.9733 126.111 18.7563L126.355 19.8487C125.686 20.1394 124.9 20.2852 123.983 20.2852C121.769 20.2852 120.459 18.8867 120.459 16.7189C120.459 14.5495 121.801 12.9186 123.807 12.9186C125.612 12.9186 126.749 14.2588 126.749 16.2824C126.754 16.5586 126.741 16.8064 126.696 16.995ZM125.254 15.8743C125.254 14.7819 124.7 14.011 123.695 14.011C122.791 14.011 122.08 14.7973 121.976 15.8743H125.254ZM136.226 20.316C134.159 20.316 132.819 18.7717 132.819 16.676C132.819 14.4912 134.187 12.934 136.345 12.934C138.38 12.934 139.752 14.4045 139.752 16.5602C139.752 18.7717 138.339 20.316 136.226 20.316ZM136.286 14.0831C135.15 14.0831 134.423 15.1455 134.423 16.6306C134.423 18.0874 135.166 19.1499 136.272 19.1499C137.378 19.1499 138.119 18.0137 138.119 16.6007C138.12 15.1601 137.392 14.0831 136.286 14.0831ZM148.206 20.1548H146.635V16.0913C146.635 14.8402 146.154 14.2126 145.208 14.2126C144.276 14.2126 143.633 15.0135 143.633 15.9456V20.154H142.062V15.101C142.062 14.475 142.046 13.8045 142.004 13.0773H143.387L143.461 14.1697H143.505C143.925 13.4134 144.786 12.9316 145.746 12.9316C147.23 12.9316 148.206 14.0677 148.206 15.9156V20.1548ZM158.494 14.2588H156.764V17.6947C156.764 18.5693 157.069 19.0057 157.679 19.0057C157.957 19.0057 158.191 18.9758 158.378 18.932L158.422 20.1265C158.116 20.2439 157.706 20.3022 157.201 20.3022C155.962 20.3022 155.221 19.6179 155.221 17.8267V14.2588H154.189V13.0797H155.221V11.7825L156.764 11.316V13.0773H158.494V14.2588ZM166.822 20.1548H165.247V16.1221C165.247 14.8556 164.767 14.2151 163.821 14.2151C163.006 14.2151 162.25 14.769 162.25 15.8897V20.1556H160.675V9.83252H162.25V14.0831H162.28C162.774 13.3122 163.489 12.9324 164.405 12.9324C165.904 12.9324 166.821 14.0968 166.821 15.9464V20.1548H166.822ZM174.856 16.995H170.138C170.168 18.3352 171.053 19.0908 172.365 19.0908C173.065 19.0908 173.704 18.9733 174.272 18.7563L174.518 19.8487C173.848 20.1394 173.061 20.2852 172.144 20.2852C169.93 20.2852 168.62 18.8867 168.62 16.7189C168.62 14.5495 169.962 12.9186 171.968 12.9186C173.773 12.9186 174.91 14.2588 174.91 16.2824C174.915 16.5586 174.899 16.8064 174.856 16.995ZM173.414 15.8743C173.414 14.7819 172.862 14.011 171.857 14.011C170.952 14.011 170.24 14.7973 170.138 15.8743H173.414Z" fill="white"/>
</svg>

<svg width="203" height="60" fill="none" xmlns="http://www.w3.org/2000/svg"><path d="M201.103 52.916a5.746 5.746 0 01-5.753 5.746H7.095c-3.179 0-5.76-2.572-5.76-5.746V7.09a5.761 5.761 0 015.76-5.755H195.35a5.753 5.753 0 015.752 5.755l.002 45.826z" fill="#fff"/><path d="M195.35 60H7.095C3.185 60 0 56.823 0 52.916V7.091C0 3.181 3.184 0 7.095 0H195.35c3.907 0 7.095 3.18 7.095 7.091v45.826c.003 3.906-3.186 7.083-7.094 7.083z" fill="#FF715B"/><path d="M201.103 52.916a5.746 5.746 0 01-5.753 5.746H7.095c-3.179 0-5.76-2.572-5.76-5.746V7.09a5.761 5.761 0 015.76-5.755H195.35a5.753 5.753 0 015.752 5.755l.002 45.826z" fill="#FF715B"/><path d="M45.205 29.684c-.044-4.836 3.96-7.189 4.142-7.298-2.267-3.305-5.78-3.757-7.016-3.793-2.951-.31-5.814 1.766-7.317 1.766-1.534 0-3.849-1.736-6.344-1.685-3.21.05-6.214 1.909-7.862 4.796-3.4 5.886-.864 14.535 2.393 19.294 1.63 2.33 3.533 4.931 6.026 4.84 2.438-.1 3.349-1.554 6.29-1.554 2.916 0 3.771 1.554 6.313 1.495 2.617-.041 4.264-2.34 5.837-4.692 1.883-2.67 2.64-5.301 2.67-5.437-.062-.02-5.082-1.937-5.133-7.732zm-4.802-14.222c1.311-1.64 2.209-3.87 1.96-6.134-1.898.084-4.272 1.312-5.639 2.917-1.208 1.413-2.289 3.73-2.01 5.909 2.132.158 4.32-1.077 5.69-2.691zM80.52 47.269h-3.408l-1.867-5.865h-6.488l-1.778 5.865H63.66L70.09 27.3h3.97l6.46 19.968zm-5.837-8.326l-1.688-5.214c-.178-.533-.515-1.787-1.006-3.761h-.06c-.198.85-.515 2.104-.948 3.761l-1.66 5.214h5.362zm22.338.95c0 2.449-.665 4.384-1.996 5.806-1.19 1.264-2.672 1.896-4.438 1.896-1.907 0-3.278-.68-4.111-2.042v7.554h-3.199V37.603c0-1.538-.04-3.115-.118-4.732h2.813l.178 2.282h.06c1.067-1.72 2.686-2.58 4.859-2.58 1.698 0 3.116.671 4.25 2.014 1.133 1.346 1.702 3.114 1.702 5.306zm-3.259.117c0-1.402-.315-2.557-.948-3.468-.692-.946-1.62-1.42-2.785-1.42-.79 0-1.506.264-2.147.785-.642.525-1.062 1.21-1.258 2.06-.099.396-.148.719-.148.974v2.402c0 1.045.321 1.93.963 2.653.643.72 1.477 1.081 2.504 1.081 1.204 0 2.142-.466 2.813-1.392.67-.93 1.006-2.154 1.006-3.675zm19.819-.117c0 2.449-.665 4.384-1.995 5.806-1.193 1.264-2.673 1.896-4.44 1.896-1.908 0-3.278-.68-4.112-2.042v7.554h-3.198V37.603c0-1.538-.04-3.115-.119-4.732h2.814l.178 2.282h.06c1.065-1.72 2.684-2.58 4.858-2.58 1.697 0 3.115.671 4.252 2.014 1.132 1.346 1.702 3.114 1.702 5.306zm-3.26.117c0-1.402-.317-2.557-.95-3.468-.692-.946-1.617-1.42-2.782-1.42-.789 0-1.506.264-2.15.785-.642.525-1.061 1.21-1.257 2.06-.098.396-.15.719-.15.974v2.402c0 1.045.322 1.93.962 2.653.642.719 1.476 1.081 2.505 1.081 1.207 0 2.145-.466 2.813-1.392.673-.93 1.009-2.154 1.009-3.675zm21.775 1.658c0 1.7-.595 3.082-1.775 4.149-1.3 1.164-3.114 1.748-5.44 1.748-2.148 0-3.87-.414-5.17-1.244l.739-2.666c1.403.83 2.944 1.245 4.622 1.245 1.206 0 2.144-.273 2.813-.814.67-.544 1.01-1.27 1.01-2.176 0-.812-.281-1.492-.831-2.045-.554-.552-1.469-1.067-2.755-1.54-3.496-1.303-5.246-3.21-5.246-5.719 0-1.638.618-2.98 1.852-4.029 1.233-1.047 2.869-1.57 4.903-1.57 1.817 0 3.331.316 4.533.948l-.803 2.607c-1.131-.612-2.408-.918-3.837-.918-1.128 0-2.013.278-2.646.83-.533.494-.802 1.096-.802 1.81 0 .788.307 1.442.92 1.955.531.472 1.5.987 2.901 1.539 1.719.693 2.982 1.5 3.791 2.428.816.926 1.221 2.083 1.221 3.462zm10.603-6.396h-3.526v6.99c0 1.778.621 2.665 1.867 2.665.571 0 1.045-.048 1.421-.148l.088 2.429c-.63.236-1.46.354-2.487.354-1.264 0-2.251-.386-2.963-1.157-.71-.771-1.067-2.064-1.067-3.882v-7.257h-2.101v-2.4h2.101v-2.637l3.142-.948v3.584h3.526v2.407h-.001zm15.877 4.68c0 2.213-.633 4.03-1.896 5.45-1.322 1.463-3.081 2.192-5.273 2.192-2.116 0-3.797-.7-5.052-2.1-1.254-1.404-1.881-3.17-1.881-5.303 0-2.23.648-4.058 1.94-5.48 1.295-1.422 3.039-2.133 5.231-2.133 2.112 0 3.81.702 5.093 2.103 1.228 1.36 1.838 3.116 1.838 5.27zm-3.316.073c0-1.319-.285-2.45-.856-3.397-.671-1.143-1.631-1.715-2.875-1.715-1.281 0-2.264.572-2.933 1.715-.574.947-.859 2.097-.859 3.457 0 1.32.285 2.455.859 3.399.691 1.143 1.657 1.715 2.906 1.715 1.223 0 2.182-.584 2.875-1.743.588-.97.883-2.11.883-3.43zm13.719-4.341a5.592 5.592 0 00-1.008-.088c-1.126 0-1.996.423-2.608 1.275-.531.75-.798 1.698-.798 2.843v7.555h-3.199v-9.863c0-1.658-.031-3.17-.093-4.533h2.786l.118 2.755h.088c.339-.947.871-1.71 1.599-2.282.713-.514 1.482-.77 2.312-.77.296 0 .563.02.8.057l.003 3.051zm14.306 3.705c0 .573-.037 1.056-.117 1.45h-9.597c.036 1.424.501 2.513 1.392 3.263.809.67 1.855 1.005 3.139 1.005 1.421 0 2.717-.225 3.883-.68l.501 2.219c-1.362.594-2.971.89-4.827.89-2.233 0-3.985-.658-5.26-1.969-1.273-1.312-1.911-3.077-1.911-5.287 0-2.17.593-3.977 1.779-5.42 1.243-1.539 2.922-2.31 5.034-2.31 2.075 0 3.646.771 4.713 2.31.847 1.22 1.271 2.733 1.271 4.529zm-3.05-.83c.022-.95-.188-1.768-.621-2.46-.554-.891-1.406-1.335-2.548-1.335-1.045 0-1.898.433-2.546 1.304-.533.691-.849 1.523-.946 2.488l6.661.003zM73.14 20.155h-1.676l-.917-2.882H67.36l-.874 2.882h-1.631l3.16-9.815h1.95l3.176 9.815zm-2.869-4.091l-.83-2.563c-.086-.262-.248-.873-.495-1.849h-.03c-.102.422-.247 1.034-.466 1.849l-.815 2.563h2.636zm10.77-2.985l-2.68 7.076h-1.528l-2.593-7.076h1.69l1.208 3.742c.204.626.378 1.223.509 1.79h.043c.118-.509.291-1.107.509-1.79l1.195-3.742h1.647zm5.705 7.076l-.117-.815h-.044c-.48.656-1.179.975-2.067.975-1.267 0-2.17-.888-2.17-2.083 0-1.746 1.515-2.65 4.135-2.65v-.13c0-.932-.495-1.398-1.47-1.398-.7 0-1.312.176-1.85.525l-.32-1.034c.657-.409 1.471-.613 2.433-.613 1.848 0 2.781.975 2.781 2.928v2.606c0 .714.03 1.268.102 1.689h-1.413zm-.22-3.524c-1.747 0-2.62.423-2.62 1.427 0 .742.451 1.106 1.077 1.106.8 0 1.544-.61 1.544-1.441v-1.092zm5.034-4.717a.924.924 0 01-.932-.947c0-.539.422-.932.962-.932.539 0 .975.393.96.932.002.569-.406.947-.99.947zm.817 8.24h-1.573V13.08h1.573v7.076zm4.366 0H95.17V9.834h1.573v10.322zm6.683 0l-.117-.814h-.044c-.48.656-1.179.975-2.067.975-1.267 0-2.17-.888-2.17-2.083 0-1.746 1.514-2.65 4.135-2.65v-.13c0-.932-.495-1.398-1.471-1.398-.698 0-1.311.176-1.848.525l-.321-1.035c.656-.408 1.471-.612 2.432-.612 1.849 0 2.781.974 2.781 2.927v2.606c0 .714.032 1.268.101 1.689h-1.411zm-.219-3.523c-1.749 0-2.622.423-2.622 1.427 0 .742.452 1.106 1.077 1.106.801 0 1.545-.61 1.545-1.441v-1.092zm7.902 3.685c-1.005 0-1.746-.424-2.226-1.253h-.031l-.09 1.093h-1.34c.043-.567.058-1.21.058-1.907V9.833h1.574v4.282h.03c.467-.787 1.221-1.18 2.257-1.18 1.705 0 2.899 1.457 2.899 3.582-.001 2.196-1.327 3.799-3.131 3.799zm-.32-6.146c-.905 0-1.733.786-1.733 1.878v1.239c0 .975.744 1.776 1.706 1.776 1.177 0 1.879-.96 1.879-2.489-.003-1.427-.732-2.404-1.852-2.404zm7.347 5.985h-1.571V9.833h1.571v10.322zm8.56-3.16h-4.72c.031 1.34.917 2.096 2.228 2.096.698 0 1.34-.118 1.907-.335l.244 1.093c-.669.29-1.455.436-2.372.436-2.214 0-3.524-1.398-3.524-3.566 0-2.17 1.342-3.8 3.348-3.8 1.805 0 2.942 1.34 2.942 3.363a3.01 3.01 0 01-.053.713zm-1.442-1.12c0-1.093-.554-1.864-1.559-1.864-.904 0-1.615.786-1.719 1.863h3.278zm10.972 4.441c-2.067 0-3.407-1.544-3.407-3.64 0-2.185 1.368-3.742 3.526-3.742 2.035 0 3.407 1.47 3.407 3.626 0 2.212-1.413 3.756-3.526 3.756zm.06-6.233c-1.136 0-1.863 1.063-1.863 2.548 0 1.456.743 2.519 1.849 2.519 1.106 0 1.847-1.136 1.847-2.55.001-1.44-.727-2.517-1.833-2.517zm11.92 6.072h-1.571V16.09c0-1.25-.481-1.878-1.427-1.878-.932 0-1.575.8-1.575 1.733v4.208h-1.571V15.1c0-.626-.016-1.296-.058-2.024h1.383l.074 1.093h.044c.42-.757 1.281-1.238 2.241-1.238 1.484 0 2.46 1.136 2.46 2.984v4.239zm10.288-5.896h-1.73v3.436c0 .874.305 1.31.915 1.31.278 0 .512-.03.699-.073l.044 1.195c-.306.117-.716.175-1.221.175-1.239 0-1.98-.684-1.98-2.475v-3.568h-1.032v-1.18h1.032v-1.296l1.543-.467v1.761h1.73v1.182zm8.328 5.896h-1.575v-4.033c0-1.266-.48-1.907-1.426-1.907-.815 0-1.571.554-1.571 1.675v4.266h-1.575V9.833h1.575v4.25h.03c.494-.77 1.209-1.15 2.125-1.15 1.499 0 2.416 1.164 2.416 3.013v4.209h.001zm8.034-3.16h-4.718c.03 1.34.915 2.096 2.227 2.096.7 0 1.339-.118 1.907-.335l.246 1.093c-.67.29-1.457.436-2.374.436-2.214 0-3.524-1.398-3.524-3.566 0-2.17 1.342-3.8 3.348-3.8 1.805 0 2.942 1.34 2.942 3.363a3.11 3.11 0 01-.054.713zm-1.442-1.12c0-1.093-.552-1.864-1.557-1.864-.905 0-1.617.786-1.719 1.863h3.276z" fill="#fff"/></svg>
